X: 17945
T: How Do Chickens Know The Size Of Eggcups?
R: jig
M: 6/8
K: Dmajor
|:FAF dAF|GFG Bcd|FAF dAF|GFG EFG|
FAF dAF|GFG Bcd|AdB AGE|EDD D3:|
|:dAF FEF|DFA dAF|Bee e2d|cAA A2e|
f2f fed|B2B Bcd|AdB AGE|EDD D3:|

